X: 41720
T: Vals Aette Thorvald Tronsgard
R: waltz
M: 3/4
K: Aminor
e2a2a2|g3fd2|def2f2|e3cA2|ABc2c2|B3^GE2|Edc2B2|A^G AB cd|
e2a2a2|g3fd2|def2f2|e3cA2|ABc2c2|B3^GE2|Edc2B2|1 A3AAz:|2 A2z2E2||
A^G AB cd|e3ee2|f2e2d2|a3gf2|e3dc2|B3A^G2|A2^GA Bc|E2z2E2|
A^G AB cd|e3ee2|f2e2d2|a3gf2|e3dc2|B3A^G2|A3AA2|1 A2z2E2:|2 A4z2||

